svg/design/ease_out_line.svg

<svg xmlns="http://www.w3.org/2000/svg" width="24" height="24" viewBox="0 0 24 24"><g fill="none" fill-rule="evenodd"><path d="M24,0 L24,24 L0,24 L0,0 L24,0 Z M12.5935,23.2578 L12.5819,23.2595 L12.5109,23.295 L12.4919,23.2987 L12.4767,23.295 L12.4057,23.2595 C12.3958,23.2564 12.387,23.259 12.3821,23.2649 L12.378,23.2758 L12.3609,23.7031 L12.3659,23.7235 L12.3769,23.7357 L12.4805,23.8097 L12.4953,23.8136 L12.5071,23.8097 L12.6107,23.7357 L12.6233,23.7197 L12.6267,23.7031 L12.6096,23.2758 C12.6076,23.2657 12.601,23.2593 12.5935,23.2578 Z M12.8584,23.1453 L12.8445,23.1473 L12.6598,23.2397 L12.6499,23.2499 L12.6472,23.2611 L12.6651,23.6906 L12.6699,23.7034 L12.6784,23.7105 L12.8793,23.8032 C12.8914,23.8069 12.9022,23.803 12.9078,23.7952 L12.9118,23.7812 L12.8777,23.1665 C12.8753,23.1546 12.8674,23.147 12.8584,23.1453 Z M12.143,23.1473 C12.1332,23.1424 12.1222,23.1453 12.1156,23.1526 L12.1099,23.1665 L12.0758,23.7812 C12.0751,23.7927 12.0828,23.8019 12.0926,23.8046 L12.1083,23.8032 L12.3092,23.7105 L12.3186,23.7024 L12.3225,23.6906 L12.3404,23.2611 L12.3372,23.2485 L12.3278,23.2397 L12.143,23.1473 Z"/><path fill="#09244B" d="M13.583,5.56876 C15.5061,4.07938 17.688,3 20,3 C20.5523,3 21,3.44772 21,4 C21,4.55228 20.5523,5 20,5 C18.3119,5 16.5564,5.79562 14.8076,7.14999 C13.0678,8.49745 11.4252,10.3284 9.98438,12.2291 C7.10448,16.0281 5.13764,19.9607 4.8944,20.4472 C4.64741,20.9412 4.04674,21.1414 3.55276,20.8944 C3.05878,20.6474 2.85856,20.0468 3.10555,19.5528 L3.10595,19.552 C3.36441,19.0351 5.39702,14.9698 8.39057,11.0209 C9.88722,9.04659 11.6509,7.06506 13.583,5.56876 Z"/></g></svg>

<svg xmlns="http://www.w3.org/2000/svg" width="24" height="24"><g fill="none" fill-rule="evenodd"><path d="M24 0v24H0V0zM12.594 23.258l-.012.002-.071.035-.02.004-.014-.004-.071-.036c-.01-.003-.019 0-.024.006l-.004.01-.017.428.005.02.01.013.104.074.015.004.012-.004.104-.074.012-.016.004-.017-.017-.427c-.002-.01-.009-.017-.016-.018m.264-.113-.014.002-.184.093-.01.01-.003.011.018.43.005.012.008.008.201.092c.012.004.023 0 .029-.008l.004-.014-.034-.614c-.003-.012-.01-.02-.02-.022m-.715.002a.023.023 0 0 0-.027.006l-.006.014-.034.614c0 .012.007.02.017.024l.015-.002.201-.093.01-.008.003-.011.018-.43-.003-.012-.01-.01z"/><path fill="#09244B" d="M13.583 5.569C15.506 4.079 17.688 3 20 3a1 1 0 1 1 0 2c-1.688 0-3.444.796-5.192 2.15-1.74 1.347-3.383 3.178-4.824 5.08-2.88 3.798-4.846 7.73-5.09 8.217a1 1 0 1 1-1.788-.894v-.001c.258-.517 2.291-4.582 5.285-8.531 1.496-1.974 3.26-3.956 5.192-5.452"/></g></svg>
